src/assets/img/icons/instagram.svg

<svg width="24" height="24" viewBox="0 0 24 24" fill="none" xmlns="http://www.w3.org/2000/svg">
  <g clip-path="url(#clip0)">
    <path
      d="M1.49971 1.63231C-0.386289 3.59131 -0.00028903 5.67231 -0.00028903 11.9943C-0.00028903 17.2443 -0.916289 22.5073 3.87771 23.7463C5.37471 24.1313 18.6387 24.1313 20.1337 23.7443C22.1297 23.2293 23.7537 21.6103 23.9757 18.7873C24.0067 18.3933 24.0067 5.60231 23.9747 5.20031C23.7387 2.19331 21.8877 0.460314 19.4487 0.109314C18.8897 0.028314 18.7777 0.00431398 15.9097 -0.000686023C5.73671 0.00431398 3.50671 -0.448686 1.49971 1.63231Z"
      fill="url(#paint0_linear)" />
    <path
      d="M11.9978 3.13941C8.36681 3.13941 4.91881 2.81641 3.60181 6.19641C3.05781 7.59241 3.13681 9.40542 3.13681 12.0014C3.13681 14.2794 3.06381 16.4204 3.60181 17.8054C4.91581 21.1874 8.39181 20.8634 11.9958 20.8634C15.4728 20.8634 19.0578 21.2254 20.3908 17.8054C20.9358 16.3954 20.8558 14.6094 20.8558 12.0014C20.8558 8.53941 21.0468 6.30441 19.3678 4.62641C17.6678 2.92641 15.3688 3.13941 11.9938 3.13941H11.9978ZM11.2038 4.73641C18.7778 4.72441 19.7418 3.88241 19.2098 15.5794C19.0208 19.7164 15.8708 19.2624 11.9988 19.2624C4.93881 19.2624 4.73581 19.0604 4.73581 11.9974C4.73581 4.85241 5.29581 4.74041 11.2038 4.73441V4.73641ZM16.7278 6.20741C16.1408 6.20741 15.6648 6.68341 15.6648 7.27041C15.6648 7.85741 16.1408 8.33341 16.7278 8.33341C17.3148 8.33341 17.7908 7.85741 17.7908 7.27041C17.7908 6.68341 17.3148 6.20741 16.7278 6.20741ZM11.9978 7.45041C9.48481 7.45041 7.44781 9.48842 7.44781 12.0014C7.44781 14.5144 9.48481 16.5514 11.9978 16.5514C14.5108 16.5514 16.5468 14.5144 16.5468 12.0014C16.5468 9.48842 14.5108 7.45041 11.9978 7.45041ZM11.9978 9.04741C15.9028 9.04741 15.9078 14.9554 11.9978 14.9554C8.09381 14.9554 8.08781 9.04741 11.9978 9.04741Z"
      fill="white" />
  </g>
  <defs>
    <linearGradient id="paint0_linear" x1="1.54573" y1="22.4664" x2="23.8512" y2="3.16129"
      gradientUnits="userSpaceOnUse">
      <stop stop-color="#FFDD55" />
      <stop offset="0.5" stop-color="#FF543E" />
      <stop offset="1" stop-color="#C837AB" />
    </linearGradient>
    <clipPath id="clip0">
      <rect width="24" height="24" fill="white" />
    </clipPath>
  </defs>
</svg>

<svg enable-background="new 0 0 24 24" height="512" viewBox="0 0 24 24" width="512" xmlns="http://www.w3.org/2000/svg"
  xmlns:xlink="http://www.w3.org/1999/xlink">
  <linearGradient id="SVGID_1_" gradientTransform="matrix(0 -1.982 -1.844 0 -132.522 -51.077)"
    gradientUnits="userSpaceOnUse" x1="-37.106" x2="-26.555" y1="-72.705" y2="-84.047">
    <stop offset="0" stop-color="#fd5" />
    <stop offset=".5" stop-color="#ff543e" />
    <stop offset="1" stop-color="#c837ab" />
  </linearGradient>
  <path
    d="m1.5 1.633c-1.886 1.959-1.5 4.04-1.5 10.362 0 5.25-.916 10.513 3.878 11.752 1.497.385 14.761.385 16.256-.002 1.996-.515 3.62-2.134 3.842-4.957.031-.394.031-13.185-.001-13.587-.236-3.007-2.087-4.74-4.526-5.091-.559-.081-.671-.105-3.539-.11-10.173.005-12.403-.448-14.41 1.633z"
    fill="url(#SVGID_1_)" />
  <path
    d="m11.998 3.139c-3.631 0-7.079-.323-8.396 3.057-.544 1.396-.465 3.209-.465 5.805 0 2.278-.073 4.419.465 5.804 1.314 3.382 4.79 3.058 8.394 3.058 3.477 0 7.062.362 8.395-3.058.545-1.41.465-3.196.465-5.804 0-3.462.191-5.697-1.488-7.375-1.7-1.7-3.999-1.487-7.374-1.487zm-.794 1.597c7.574-.012 8.538-.854 8.006 10.843-.189 4.137-3.339 3.683-7.211 3.683-7.06 0-7.263-.202-7.263-7.265 0-7.145.56-7.257 6.468-7.263zm5.524 1.471c-.587 0-1.063.476-1.063 1.063s.476 1.063 1.063 1.063 1.063-.476 1.063-1.063-.476-1.063-1.063-1.063zm-4.73 1.243c-2.513 0-4.55 2.038-4.55 4.551s2.037 4.55 4.55 4.55 4.549-2.037 4.549-4.55-2.036-4.551-4.549-4.551zm0 1.597c3.905 0 3.91 5.908 0 5.908-3.904 0-3.91-5.908 0-5.908z"
    fill="#fff" />
</svg>
